X: 2
T:Carlisle Races. Car.02
M:6/8
L:1/8
Q:120
S:CarlisleMS,Anon.c1812.AGG's transcription
R:jig
O:England
A:Carlisle
Z:vmp.Chris Partington
K:G
D|G2B d2e|dBd g2d|c2e dBG|F<AA A2D|!
G2B d2e|dBd g2d|c2e DEF|FGG G2:|!
|:d|gab agf|efg dcB|cde dBG|F<AA A2d|!
gab agf|efg dcB|c2e DEF|FGG G2:|]
